X:1000
T:Miss Sitwell's Strathsy.
M:C
L:1/8
Q:1/4=100
I: || ||S
N:segno at the end
Z:Jack Campin * www.campin.me.uk * 2009
K:D
F/E/|DAFA    BEEF/E/  |DAFd        Afda  |{g}f>e d/e/f/d/ eEEF/E/  |DAFd      A2A/G/F/E/|
     DAFA    BEEF/E/  |DAFd        Afda  |{g}f>e d/e/f/d/ eEEF/G/  |AdFA   {A}d2d2     ||
f/g/|a>d'f>a beef/g/  |a>d'f>g     abf>d'|   a<f{f}d'a    g(ee)f/g/|a>d'Ta>b Taafg      |
     ad'f>a  b(ee)f/g/|ab/c'/ d'c' bagf  |{g}f>e{de}f>d   eEEF/G/  |A>d AG/F/ A2Ad     ||
